X:269
T: MEI SCHATZ ISCHT E REITER
N: Z0267
O: Europa, Mitteleuropa, Deutschland; Tirol
R: lyrisches Lied, Romanze
M: 3/8
L: 1/16
K: F
c2 | A2c2c2 | A2c2c2 | A2c2c2 | c4
c2 | B2d2d2 | f3ed2 | d2c2c2 | c4
cd | c2B2B2 | d3cB2 | B2A2A2 | A4
c2 | c2e4 | c2f4 | e2d2e2 | f4

